src/assets/icons/table.svg

<svg width="24" height="24" viewBox="0 0 24 24" fill="none" xmlns="http://www.w3.org/2000/svg">
<path d="M9.66667 5H6.55556C6.143 5 5.74733 5.16389 5.45561 5.45561C5.16389 5.74733 5 6.143 5 6.55556V9.66667M9.66667 5H17.4444C17.857 5 18.2527 5.16389 18.5444 5.45561C18.8361 5.74733 19 6.143 19 6.55556V9.66667M9.66667 5V19M5 9.66667V17.4444C5 17.857 5.16389 18.2527 5.45561 18.5444C5.74733 18.8361 6.143 19 6.55556 19H9.66667M5 9.66667H19M19 9.66667V17.4444C19 17.857 18.8361 18.2527 18.5444 18.5444C18.2527 18.8361 17.857 19 17.4444 19H9.66667" stroke="#314158" stroke-width="1.5" stroke-linecap="round" stroke-linejoin="round"/>
</svg>

<svg fill="none" viewBox="0 0 24 24"><path stroke="currentColor" stroke-linecap="round" stroke-linejoin="round" stroke-width="1.5" d="M9.667 5H6.556A1.556 1.556 0 0 0 5 6.556v3.11M9.667 5h7.777A1.556 1.556 0 0 1 19 6.556v3.11M9.667 5v14M5 9.667v7.777A1.556 1.556 0 0 0 6.556 19h3.11M5 9.667h14m0 0v7.777A1.556 1.556 0 0 1 17.444 19H9.667"/></svg>
